!!!SOCIAL_FUNCTION:	songs of the ghost dance
!!!PDT:	1936
!!!OTL: No_35_A_Turtle_Pond.krn
!!!REG: Oklahoma and Montana
!!!LANG: Tone
!!!LING_GROUP: Algonquin
**kern
*staff1
=1-
*clefF4
*k[]
*M3/4
8c\L
8c\J
8c\L
8A\J
4G\
=2
*M2/4
8A\L
8G\J
8G\L
8G\J
=3
*M3/4
4E\
4r
8G\L
8A\J
=4
*M2/4
4G\
8A\L
8G\J
=5
*M3/4
8G\L
8G\J
8E\
8r
8G\L
8A\J
=6
*M2/4
8G\L
8G\J
8G\
8r
=7!|:
16c\LK
8.c\J
8c\L
8A\J
=8
4G\
8G\L
8A\J
=9
8G\L
8G\J
8G\
8r
=10
16c\LK
8.c\J
8c\L
8A\J
=11
4G\
8G\L
8A\J
=12
8G\L
8G\J
8G\
8r
=13
16A\LK
8.A\J
4G\
=14
8A\L
8G\J
8G\L
8G\J
=15
8E\
8r
8G\L
8A\J
=16
8G\L
8G\J
8G\
8r
=17:|!
*M3/4
8G\L
8G\J
8G\
8r
8G\L
8A\J
=18
*M2/4
4G\
8A\L
8G\J
=19
*M3/4
8G\L
8G\J
8E\
8r
8G\L
8A\J
=20
*M2/4
8G\L
8G\J
8G\
8r
==
*-
